X:33
T:Dancing on the Door* (h)
B:NFID.091b ("untitled barndance")
033danc_d
S:JD
L:1/8
M:C
R:hornpipe % A-B-C-A
Q:240
K:D
F3E|:D2A,2D2F2|A^GAB A=GFE|D2A,2D2F2|E2cB AGFE|
D2A,2D2F2|A^GAB A2F2|GFEF GABc|d4 d2zg||
%B
fefg agfe|fedc dAdf|e^def efgf|eABc defg|
fefg abag|fgfe dcdf|e^def e=dcB|ABcd efgb|
%C
a^gab aAdf|gfga gAcd|fedc Bgec|dDFA d2eg|
fefg abag|fgfe dcdA|BcdB cdec|d2cB AGFE||

%%%

